X: 8013
T: Connaughtman's Rambles, The
R: jig
M: 6/8
K: Dmajor
F2A dAA|BAB dAG|FAA dfe|dBB BAG|
FAA dAA|~B3 def|gfe ~f2e|dBB BAG|
F2A dAA|~B3 ~d3|FAA dAA|BdB BAG|
FAA dAA|~B3 ~d3|gfe ~f2e|dBB B2e||
|:fbb faa|fef d2e|fbb faa|fed e2g|
fbb faa|eff fef|gfe ~f2e|1 d2g gfe:|2 dBB BAG||

